tools/download-figma-icons/icons/solid/virus.svg

<svg width="24" height="24" viewBox="0 0 24 24" fill="none" xmlns="http://www.w3.org/2000/svg">
<path fill-rule="evenodd" clip-rule="evenodd" d="M12 9C10.3425 9 9 10.3425 9 12C9 13.6575 10.3425 15 12 15C13.6575 15 15 13.6575 15 12C15 10.3425 13.6575 9 12 9ZM21.2078 11.25C21.468 10.803 21.9465 10.5 22.5 10.5C23.328 10.5 24 11.172 24 12C24 12.828 23.328 13.5 22.5 13.5C21.9465 13.5 21.468 13.197 21.2078 12.75H19.4625C19.3125 14.2575 18.7125 15.6375 17.8125 16.7475L17.8102 16.7498L19.0417 17.9813C19.5413 17.8493 20.094 17.9722 20.4847 18.3638C21.0712 18.9503 21.0712 19.899 20.4847 20.4847C19.899 21.0712 18.9503 21.0712 18.3638 20.4847C17.9722 20.094 17.8493 19.5413 17.9813 19.0417L16.7498 17.8102L16.7475 17.8125C15.6375 18.7125 14.2575 19.3125 12.75 19.4625V21.2078C13.197 21.468 13.5 21.9465 13.5 22.5C13.5 23.328 12.828 24 12 24C11.172 24 10.5 23.328 10.5 22.5C10.5 21.9465 10.803 21.468 11.25 21.2078V19.4625C9.7425 19.3125 8.3625 18.7125 7.2525 17.8125L7.25025 17.8102L6.01875 19.0417C6.15075 19.5413 6.02775 20.094 5.63625 20.4847C5.04975 21.0712 4.101 21.0712 3.51525 20.4847C2.92875 19.899 2.92875 18.9503 3.51525 18.3638C3.906 17.9722 4.45875 17.8493 4.95825 17.9813L6.18975 16.7498L6.1875 16.7475C5.2875 15.6375 4.6875 14.2575 4.5375 12.75H2.79225C2.532 13.197 2.0535 13.5 1.5 13.5C0.672 13.5 0 12.828 0 12C0 11.172 0.672 10.5 1.5 10.5C2.0535 10.5 2.532 10.803 2.79225 11.25H4.5375C4.6875 9.7425 5.2875 8.3625 6.1875 7.2525L6.18975 7.25025L4.95825 6.01875C4.45875 6.15075 3.906 6.02775 3.51525 5.63625C2.92875 5.04975 2.92875 4.101 3.51525 3.51525C4.101 2.92875 5.04975 2.92875 5.63625 3.51525C6.02775 3.906 6.15075 4.45875 6.01875 4.95825L7.25025 6.18975L7.2525 6.1875C8.3625 5.2875 9.7425 4.6875 11.25 4.5375V2.79225C10.803 2.532 10.5 2.0535 10.5 1.5C10.5 0.672 11.172 0 12 0C12.828 0 13.5 0.672 13.5 1.5C13.5 2.0535 13.197 2.532 12.75 2.79225V4.5375C14.2575 4.6875 15.6375 5.2875 16.7475 6.1875L16.7498 6.18975L17.9813 4.95825C17.8493 4.45875 17.9722 3.906 18.3638 3.51525C18.9503 2.92875 19.899 2.92875 20.4847 3.51525C21.0712 4.101 21.0712 5.04975 20.4847 5.63625C20.094 6.02775 19.5413 6.15075 19.0417 6.01875L17.8102 7.25025L17.8125 7.2525C18.7125 8.3625 19.3125 9.7425 19.4625 11.25H21.2078ZM13.5 12C13.5 12.825 12.825 13.5 12 13.5C11.175 13.5 10.5 12.825 10.5 12C10.5 11.175 11.175 10.5 12 10.5C12.825 10.5 13.5 11.175 13.5 12Z" fill="black"/>
</svg>

<svg width="24" height="24" viewBox="0 0 24 24" fill="none" xmlns="http://www.w3.org/2000/svg"><path fill-rule="evenodd" clip-rule="evenodd" d="M12 9a3 3 0 1 0 0 6 3 3 0 1 0 0-6Zm9.208 2.25c.26-.447.739-.75 1.292-.75a1.5 1.5 0 0 1 0 3 1.494 1.494 0 0 1-1.292-.75h-1.745a7.535 7.535 0 0 1-1.65 3.997l-.003.003 1.232 1.231a1.49 1.49 0 0 1 1.443.383 1.498 1.498 0 0 1 0 2.12 1.498 1.498 0 0 1-2.121 0 1.49 1.49 0 0 1-.383-1.442L16.75 17.81l-.003.003c-1.11.9-2.49 1.5-3.997 1.65v1.745c.447.26.75.739.75 1.292a1.5 1.5 0 0 1-3 0c0-.553.303-1.032.75-1.292v-1.745a7.535 7.535 0 0 1-3.997-1.65l-.003-.003-1.231 1.232a1.49 1.49 0 0 1-.383 1.443 1.498 1.498 0 0 1-2.12 0 1.498 1.498 0 0 1 0-2.121c.39-.392.943-.515 1.442-.383L6.19 16.75l-.003-.003c-.9-1.11-1.5-2.49-1.65-3.997H2.792c-.26.447-.738.75-1.292.75a1.5 1.5 0 0 1 0-3c.554 0 1.032.303 1.292.75h1.745a7.535 7.535 0 0 1 1.65-3.997l.003-.003-1.232-1.23a1.49 1.49 0 0 1-1.443-.383 1.498 1.498 0 0 1 0-2.12 1.498 1.498 0 0 1 2.121 0c.392.39.515.943.383 1.442L7.25 6.19l.003-.003c1.11-.9 2.49-1.5 3.997-1.65V2.792A1.494 1.494 0 0 1 10.5 1.5a1.5 1.5 0 0 1 3 0c0 .554-.303 1.032-.75 1.292v1.745c1.508.15 2.887.75 3.997 1.65l.003.003 1.231-1.232a1.49 1.49 0 0 1 .383-1.443 1.498 1.498 0 0 1 2.12 0 1.498 1.498 0 0 1 0 2.121c-.39.392-.943.515-1.442.383L17.81 7.25l.003.003c.9 1.11 1.5 2.49 1.65 3.997h1.745ZM13.5 12c0 .825-.675 1.5-1.5 1.5s-1.5-.675-1.5-1.5.675-1.5 1.5-1.5 1.5.675 1.5 1.5Z" fill="currentColor"/></svg>
